public/img/powerbar.svg

<svg xmlns="http://www.w3.org/2000/svg" xml:space="preserve" style="fill-rule:evenodd;clip-rule:evenodd;stroke-linejoin:round;stroke-miterlimit:2" viewBox="0 0 73 563"><path d="M49.04 529.5H23c-1.93 0-3.5-1.57-3.5-3.5s1.57-3.5 3.5-3.5h26.04c1.93 0 3.5 1.57 3.5 3.5s-1.57 3.5-3.5 3.5m3.5-176.13c0-1.93-1.57-3.5-3.5-3.5H23c-1.93 0-3.5 1.57-3.5 3.5s1.57 3.5 3.5 3.5h26.04c1.93 0 3.5-1.57 3.5-3.5m0-171.67c0-1.93-1.57-3.5-3.5-3.5H23c-1.93 0-3.5 1.57-3.5 3.5s1.57 3.5 3.5 3.5h26.04c1.93 0 3.5-1.57 3.5-3.5m0 314.3c0-1.93-1.57-3.5-3.5-3.5H23c-1.93 0-3.5 1.57-3.5 3.5s1.57 3.5 3.5 3.5h26.04c1.93 0 3.5-1.57 3.5-3.5m0-170.6c0-1.93-1.57-3.5-3.5-3.5H23c-1.93 0-3.5 1.57-3.5 3.5s1.57 3.5 3.5 3.5h26.04c1.93 0 3.5-1.57 3.5-3.5m0-172.63c0-1.93-1.57-3.5-3.5-3.5H23c-1.93 0-3.5 1.57-3.5 3.5s1.57 3.5 3.5 3.5h26.04c1.93 0 3.5-1.57 3.5-3.5m0 313.23c0-1.93-1.57-3.5-3.5-3.5H23c-1.93 0-3.5 1.57-3.5 3.5s1.57 3.5 3.5 3.5h26.04c1.93 0 3.5-1.57 3.5-3.5m0-169.53c0-1.93-1.57-3.5-3.5-3.5H23c-1.93 0-3.5 1.57-3.5 3.5s1.57 3.5 3.5 3.5h26.04c1.93 0 3.5-1.57 3.5-3.5m0-169.47c0-1.93-1.57-3.5-3.5-3.5H23c-1.93 0-3.5 1.57-3.5 3.5s1.57 3.5 3.5 3.5h26.04c1.93 0 3.5-1.57 3.5-3.5m0 310c0-1.93-1.57-3.5-3.5-3.5H23c-1.93 0-3.5 1.57-3.5 3.5s1.57 3.5 3.5 3.5h26.04c1.93 0 3.5-1.57 3.5-3.5m0-169.47c0-1.93-1.57-3.5-3.5-3.5H23c-1.93 0-3.5 1.57-3.5 3.5s1.57 3.5 3.5 3.5h26.04c1.93 0 3.5-1.57 3.5-3.5m0-169.53c0-1.93-1.57-3.5-3.5-3.5H23c-1.93 0-3.5 1.57-3.5 3.5s1.57 3.5 3.5 3.5h26.04c1.93 0 3.5-1.57 3.5-3.5m0 313.23c0-1.93-1.57-3.5-3.5-3.5H23c-1.93 0-3.5 1.57-3.5 3.5s1.57 3.5 3.5 3.5h26.04c1.93 0 3.5-1.57 3.5-3.5m0-172.63c0-1.93-1.57-3.5-3.5-3.5H23c-1.93 0-3.5 1.57-3.5 3.5s1.57 3.5 3.5 3.5h26.04c1.93 0 3.5-1.57 3.5-3.5m0-170.6c0-1.93-1.57-3.5-3.5-3.5H23c-1.93 0-3.5 1.57-3.5 3.5s1.57 3.5 3.5 3.5h26.04c1.93 0 3.5-1.57 3.5-3.5m0 314.3c0-1.93-1.57-3.5-3.5-3.5H23c-1.93 0-3.5 1.57-3.5 3.5s1.57 3.5 3.5 3.5h26.04c1.93 0 3.5-1.57 3.5-3.5m0-171.67c0-1.93-1.57-3.5-3.5-3.5H23c-1.93 0-3.5 1.57-3.5 3.5s1.57 3.5 3.5 3.5h26.04c1.93 0 3.5-1.57 3.5-3.5m0-172.63c0-1.93-1.57-3.5-3.5-3.5H23c-1.93 0-3.5 1.57-3.5 3.5s1.57 3.5 3.5 3.5h26.04c1.93 0 3.5-1.57 3.5-3.5" style="fill:#e62040;fill-rule:nonzero" transform="translate(.48 .5)"/></svg>

<?xml version="1.0" encoding="UTF-8" standalone="no"?>
<!DOCTYPE svg PUBLIC "-//W3C//DTD SVG 1.1//EN" "http://www.w3.org/Graphics/SVG/1.1/DTD/svg11.dtd">
<svg width="100%" height="100%" viewBox="0 0 73 500" version="1.1" xmlns="http://www.w3.org/2000/svg" xmlns:xlink="http://www.w3.org/1999/xlink" xml:space="preserve" xmlns:serif="http://www.serif.com/" style="fill-rule:evenodd;clip-rule:evenodd;stroke-linejoin:round;stroke-miterlimit:2;">
    <g transform="matrix(1,0,0,1.0101,0.48,-34.8485)">
        <path d="M49.04,529.5L23,529.5C21.07,529.5 19.5,527.93 19.5,526C19.5,524.07 21.07,522.5 23,522.5L49.04,522.5C50.97,522.5 52.54,524.07 52.54,526C52.54,527.93 50.97,529.5 49.04,529.5M52.54,353.37C52.54,351.44 50.97,349.87 49.04,349.87L23,349.87C21.07,349.87 19.5,351.44 19.5,353.37C19.5,355.3 21.07,356.87 23,356.87L49.04,356.87C50.97,356.87 52.54,355.3 52.54,353.37M52.54,181.7C52.54,179.77 50.97,178.2 49.04,178.2L23,178.2C21.07,178.2 19.5,179.77 19.5,181.7C19.5,183.63 21.07,185.2 23,185.2L49.04,185.2C50.97,185.2 52.54,183.63 52.54,181.7M52.54,496C52.54,494.07 50.97,492.5 49.04,492.5L23,492.5C21.07,492.5 19.5,494.07 19.5,496C19.5,497.93 21.07,499.5 23,499.5L49.04,499.5C50.97,499.5 52.54,497.93 52.54,496M52.54,325.4C52.54,323.47 50.97,321.9 49.04,321.9L23,321.9C21.07,321.9 19.5,323.47 19.5,325.4C19.5,327.33 21.07,328.9 23,328.9L49.04,328.9C50.97,328.9 52.54,327.33 52.54,325.4M52.54,152.77C52.54,150.84 50.97,149.27 49.04,149.27L23,149.27C21.07,149.27 19.5,150.84 19.5,152.77C19.5,154.7 21.07,156.27 23,156.27L49.04,156.27C50.97,156.27 52.54,154.7 52.54,152.77M52.54,466C52.54,464.07 50.97,462.5 49.04,462.5L23,462.5C21.07,462.5 19.5,464.07 19.5,466C19.5,467.93 21.07,469.5 23,469.5L49.04,469.5C50.97,469.5 52.54,467.93 52.54,466M52.54,296.47C52.54,294.54 50.97,292.97 49.04,292.97L23,292.97C21.07,292.97 19.5,294.54 19.5,296.47C19.5,298.4 21.07,299.97 23,299.97L49.04,299.97C50.97,299.97 52.54,298.4 52.54,296.47M52.54,127C52.54,125.07 50.97,123.5 49.04,123.5L23,123.5C21.07,123.5 19.5,125.07 19.5,127C19.5,128.93 21.07,130.5 23,130.5L49.04,130.5C50.97,130.5 52.54,128.93 52.54,127M52.54,437C52.54,435.07 50.97,433.5 49.04,433.5L23,433.5C21.07,433.5 19.5,435.07 19.5,437C19.5,438.93 21.07,440.5 23,440.5L49.04,440.5C50.97,440.5 52.54,438.93 52.54,437M52.54,267.53C52.54,265.6 50.97,264.03 49.04,264.03L23,264.03C21.07,264.03 19.5,265.6 19.5,267.53C19.5,269.46 21.07,271.03 23,271.03L49.04,271.03C50.97,271.03 52.54,269.46 52.54,267.53M52.54,98C52.54,96.07 50.97,94.5 49.04,94.5L23,94.5C21.07,94.5 19.5,96.07 19.5,98C19.5,99.93 21.07,101.5 23,101.5L49.04,101.5C50.97,101.5 52.54,99.93 52.54,98M52.54,411.23C52.54,409.3 50.97,407.73 49.04,407.73L23,407.73C21.07,407.73 19.5,409.3 19.5,411.23C19.5,413.16 21.07,414.73 23,414.73L49.04,414.73C50.97,414.73 52.54,413.16 52.54,411.23M52.54,238.6C52.54,236.67 50.97,235.1 49.04,235.1L23,235.1C21.07,235.1 19.5,236.67 19.5,238.6C19.5,240.53 21.07,242.1 23,242.1L49.04,242.1C50.97,242.1 52.54,240.53 52.54,238.6M52.54,68C52.54,66.07 50.97,64.5 49.04,64.5L23,64.5C21.07,64.5 19.5,66.07 19.5,68C19.5,69.93 21.07,71.5 23,71.5L49.04,71.5C50.97,71.5 52.54,69.93 52.54,68M52.54,382.3C52.54,380.37 50.97,378.8 49.04,378.8L23,378.8C21.07,378.8 19.5,380.37 19.5,382.3C19.5,384.23 21.07,385.8 23,385.8L49.04,385.8C50.97,385.8 52.54,384.23 52.54,382.3M52.54,210.63C52.54,208.7 50.97,207.13 49.04,207.13L23,207.13C21.07,207.13 19.5,208.7 19.5,210.63C19.5,212.56 21.07,214.13 23,214.13L49.04,214.13C50.97,214.13 52.54,212.56 52.54,210.63M52.54,38C52.54,36.07 50.97,34.5 49.04,34.5L23,34.5C21.07,34.5 19.5,36.07 19.5,38C19.5,39.93 21.07,41.5 23,41.5L49.04,41.5C50.97,41.5 52.54,39.93 52.54,38" style="fill:rgb(230,32,64);fill-rule:nonzero;"/>
    </g>
</svg>
